!!!!SEGMENT: pl-wn--sd-xvi-qu-273--045_gomolka-mikolaj--serce-mi-kaze-spiewac-panu-swemu.krn
!!!cenid: 15xx:250
!!!COM: Gomółka, Mikołaj
!!!COM-rismid: pe30013343
!!!CDT: ~1535->1591/04/30
!!!CNT: Polish
!!!GTL: Melodiae na psalterz polski
!!!OTL: XLV. Serce mi każe śpiewać panu swemu,
!!!PDT: 1580
!!!AGN: Sacred
!!!SMS-siglum: PL-Wn
!!!SMS-shelfmark: SD XVI.Qu.273
!!!SMS-shelfwork: 045 G
!!!NIFC-rismid:
!!!ONB-nifc: Melodiae na psalterz polski
**kern	**text	**kern	**text	**kern	**text	**kern	**text
*part4	*part4	*part3	*part3	*part2	*part2	*part1	*part1
*staff4	*staff4	*staff3	*staff3	*staff2	*staff2	*staff1	*staff1
*clefF3	*	*clefC3	*	*clefC2	*	*clefG2	*
*k[b-]	*	*k[b-]	*	*k[b-]	*	*k[b-]	*
*F:	*	*F:	*	*F:	*	*F:	*
*M4/2	*	*M4/2	*	*M4/2	*	*M4/2	*
*met(C)	*	*met(C)	*	*met(C)	*	*met(C)	*
=-	=-	=-	=-	=-	=-	=-	=-
2F/	Ser-	2A	Ser-	2f	Ser-	2cc	Ser-
2BB-	.	2B-	.	4d	.	2b-/	.
.	.	.	.	4e	.	.	.
2F/	-ce	2c/	-ce	2f	-ce	2a	-ce
4r	.	4r	.	4r	.	4r	.
4F/	mi	4c/	mi	4a	mi	4ff	mi
=3-	=3-	=3-	=3-	=3-	=3-	=3-	=3-
2c	ťa-	2c/	ťa-	2g	ťa-	2ee	ťa-
!	!ż	!	!ż	!	!ż	!	!ż
2B-	-ӡe	4d	-ӡe	2g	-ӡe	2dd	-ӡe
.	.	4e	.	.	.	.	.
2A	śpié:	2f	śpié:	2a	śpié:	2cc	śpié:
2G	(-wáć)	2e	(-wáć)	2c	(-wáć)	2g	(-wáć)
=4-	=4-	=4-	=4-	=4-	=4-	=4-	=4-
2.F/	pá:	2d	pá:	2f	pá:	4a	pá:
.	.	.	.	.	.	4b-	.
.	.	2c/	(-nu)	2f	(-nu)	1cc	(-nu)
4E	-nu	.	.	.	.	.	.
1D	ʃwé-	1d	ʃwe:	1f	ʃw:/(é-)	.	.
.	.	.	.	.	.	2b-/	ʃwé-
=5-	=5-	=5-	=5-	=5-	=5-	=5-	=5-
1C	-m/	2e	(-mu)	2g	(-mu,)	2cc	-mu/
.	.	4r	.	4r	.	4r	.
.	A	4e	A	4g	A	4cc	A
2F/	ʃer:	2f	ʃer-	2a	ʃer-	2cc	ʃer-
2F/	(-cu)	2.f	-cu	2a	-cu	2cc	-cu
=6-	=6-	=6-	=6-	=6-	=6-	=6-	=6-
2F/	ię-	.	.	2a	ię-	2dd	ię:
.	.	4e	ię-	.	.	.	.
2G	-zyť	2d	-zyť	4b-	-zyť	2b-	(-zyť)
.	.	.	.	4a	.	.	.
2C	poʃ-	4e	poʃ-	2g	poʃ-	2.cc	poʃ-
.	.	4d	.	.	.	.	.
1F	-ł:(usz-)	2c/	.	4a	.	.	.
.	.	.	.	4g	.	4b-	.
=7-	=7-	=7-	=7-	=7-	=7-	=7-	=7-
.	.	2c/	-łu:(sz-)	1f	-łu(sz-)	1a	-łu:(sz-)
2FF	.	4A	.	.	.	.	.
.	.	4B-	.	.	.	.	.
2C	(-ny)	2c/	(-ny)	2e/	(-ny)	2g	(-ny)
2C	peł-	2e	peł-	2g	peł-	1cc	peł-
=8-	=8-	=8-	=8-	=8-	=8-	=8-	=8-
1F	(-ne-)	1f	-ne-	1a	-ne-	.	.
.	.	.	.	.	.	2cc	-n:(e-)
2C	(-mu)	2e	-mu	2g	(-mu)	2cc	(-mu)
2D	Od-	4d	Od-	2f	Od-	2ff	Od-
.	.	4c/	.	.	.	.	.
!!LO:PB:g=original
=9-	=9-	=9-	=9-	=9-	=9-	=9-	=9-
2G	-bié-	2d	-bié-	2.b-	-bié-	2dd	-bié-
2G	-ra	4g	-ra	.	.	2dd	-ra
.	.	4f	.	4a	-ra	.	.
1C	ʃło-	4e	ʃło-	1g	ʃło-	2.ee	ʃło-
.	.	4d	.	.	.	.	.
.	.	2e	.	.	.	.	.
.	.	.	.	.	.	4dd	.
=10-	=10-	=10-	=10-	=10-	=10-	=10-	=10-
2F/	-wá/	2.f	-wá/	1a	-wá/	2cc	-wá/
2F/	y	.	.	.	.	2cc	y
.	.	4e	y	.	.	.	.
2.B-	no-	2d	no:	1b-	y	2.dd	no-
.	.	2d	(-wy)	.	.	.	.
4A	.	.	.	.	.	4cc	.
=11-	=11-	=11-	=11-	=11-	=11-	=11-	=11-
2G	-wy	2g	rym	2b-	no:	4dd	-wy
.	.	.	.	.	.	4ee	.
2F/	rym	2a	.	2cc	(-wy)	1ff	rym
!	!dź	!	!dź	!	!	!	!
1c	dӡie:	1g	dӡ:(ie-)	2.cc	rym	.	.
!	!	!	!	!	!	!	!dź
.	.	.	.	.	.	2ee	dӡie-
!	!	!	!	!	!dź	!	!
.	.	.	.	4b-	dӡ:(ie-)	.	.
=12-	=12-	=12-	=12-	=12-	=12-	=12-	=12-
2F/	(-je)	2.f	(-je)	2a	(-je)	2ff	-je/
2F/	Led-	.	.	2a	Led-	2.ff	Led-
.	.	4e	.	.	.	.	.
2.B-	.	1d	Led-	2b-	.	.	.
.	.	.	.	.	.	4ee	.
.	.	.	.	2f	.	4dd	.
4A	.	.	.	.	.	4cc	.
=13-	=13-	=13-	=13-	=13-	=13-	=13-	=13-
2.G	-wie	1d	-wie	4b-	-wie	4dd\	-wie
.	.	.	.	4a	.	4cc\	.
.	.	.	.	2g	.	4b-/	.
4F/	.	.	.	.	.	4a/	.
4E	.	2e	táť	2g	táť	2g	.
4D	.	.	.	.	.	.	.
2C	táť	2e	.	2g	.	1cc	táť
=14-	=14-	=14-	=14-	=14-	=14-	=14-	=14-
1G	pręd-	1d	pręd-	2.g	pręd-	.	.
.	.	.	.	.	.	2b-/	pręd-
.	.	.	.	4f	.	.	.
2C	-ťo	2c/	-ťo	2e/	-ťo	2cc	-ťo
1F	pi-	1c	pi-	2.a	pi-	1cc	pi-
=15-	=15-	=15-	=15-	=15-	=15-	=15-	=15-
.	.	.	.	.	.	.	.
.	.	.	.	4g	.	.	.
2F	-ʃarӡ	2c/	-ʃarӡ	4f	-ʃarӡ	2a	-ʃarӡ
.	.	.	.	4e/	.	.	.
2BB-	piʃ-	2.B-	piʃ-	4d	piʃ-	2dd	piʃ-
.	.	.	.	4e/	.	.	.
2BB-	-mo	.	.	1f	-mo	2dd	-mo
.	.	4A	.	.	.	.	.
=16-	=16-	=16-	=16-	=16-	=16-	=16-	=16-
1C	le-	4G	-mo	.	.	2.cc	le-
.	.	4F	.	.	.	.	.
.	.	2G	le-	2e/	le-	.	.
.	.	.	.	.	.	4b-	.
!!LO:N:vis=00
!	!	!ogonek z lewej strony	!	!	!	!	!
1F;	-ie.	1A/;	-ie.	1f	-ie.	1a;	-ie.
=-	=-	=-	=-	=-	=-	=-	=-
*-	*-	*-	*-	*-	*-	*-	*-
!!!RDF**kern: l = terminal long
!!!system-decoration: s1,s2,s3,s4
!!!RDF**kern: > = above
!!!URL-scan: https://polona.pl/item/melodiae-na-psalterz-polski,Nzk3MTM4ODQ/111 Scan on Polona
!!!IIIF: https://polona.pl/iiif/item/Nzk3MTM4ODQ/manifest.json
